img/collaborative-dev2.svg

<svg fill="none" height="300" viewBox="0 0 300 300" width="300" xmlns="http://www.w3.org/2000/svg"><rect fill="#5b57ca" height="300" rx="24" width="300"/><path d="m132 132h120v89.9997h-120z" fill="#fff500"/><path d="m48 78.0002h120v89.9997h-120z" fill="#ff776e"/><path clip-rule="evenodd" d="m110.672 124.789c-.088-.388.105-.78.443-.987 2.035-1.252 3.392-3.5 3.392-6.065 0-3.929-3.185-7.115-7.115-7.115-3.929 0-7.115 3.186-7.115 7.115 0 2.654 1.454 4.969 3.608 6.192.356.202.564.605.474 1.005l-3.356 14.846c-.122.536.286 1.046.836 1.046h11.386c.55 0 .957-.51.836-1.046z" fill="#000" fill-rule="evenodd"/><rect height="21.5999" rx="6.59998" stroke="#f66" stroke-linecap="round" stroke-linejoin="round" stroke-width="5.99998" width="13.2" x="202.799" y="165"/><path d="m173.4 184.8h7.19998v3.59999h-7.19998z" fill="#d95047"/><path d="m171 184.8h7.79998v3.59999h-7.79998z" fill="#f55c5c"/><path d="m173.4 177.601h7.19998v3.59999h-7.19998z" fill="#d95047"/><path d="m171 177.601h7.79998v3.59999h-7.79998z" fill="#f55c5c"/><path d="m174.6 181.2h7.79998v3.59999h-7.79998z" fill="#d95047"/><path d="m173.4 181.2h7.19998v3.59999h-7.19998z" fill="#f55c5c"/><path d="m200.4 177h-29.4" stroke="#f66" stroke-linecap="round" stroke-linejoin="round" stroke-width="5.99998"/><path d="m132 132h35.9999v35.9999h-35.9999z" fill="#00f"/><path d="m151.801 146.09h4.345c2.571 0 4.655 2.084 4.655 4.655 0 2.571-2.084 4.655-4.655 4.655h-11.762c-2.863 0-5.183-2.32-5.183-5.182 0-2.416 1.669-4.511 4.024-5.051l3.776-.867" stroke="#fff" stroke-width="4.2857"/><path d="m149.7 140.325v-4.725m2.925 5.4 3.15-3.15m-9 3.15-3.15-3.15" stroke="#fff500" stroke-width="2.57142"/><g stroke="#fff" stroke-width="4.2857"><path d="m156 149.657h12"/><path d="m132 149.657h12"/></g></svg>

<svg width="300" height="300" viewBox="0 0 300 300" fill="none" xmlns="http://www.w3.org/2000/svg">
<rect width="300" height="300" rx="24" fill="#5B57CA"/>
<rect x="132" y="132" width="120" height="89.9997" fill="#FFF500"/>
<rect x="48" y="78.0002" width="120" height="89.9997" fill="#FF776E"/>
<path fill-rule="evenodd" clip-rule="evenodd" d="M110.672 124.789C110.584 124.401 110.777 124.009 111.115 123.802C113.15 122.55 114.507 120.302 114.507 117.737C114.507 113.808 111.322 110.622 107.392 110.622C103.463 110.622 100.277 113.808 100.277 117.737C100.277 120.391 101.731 122.706 103.885 123.929C104.241 124.131 104.449 124.534 104.359 124.934L101.003 139.78C100.881 140.316 101.289 140.826 101.839 140.826H113.225C113.775 140.826 114.182 140.316 114.061 139.78L110.672 124.789Z" fill="black"/>
<rect x="202.799" y="165" width="13.2" height="21.5999" rx="6.59998" stroke="#FF6666" stroke-width="5.99998" stroke-linecap="round" stroke-linejoin="round"/>
<rect x="173.4" y="184.8" width="7.19998" height="3.59999" fill="#D95047"/>
<rect x="171" y="184.8" width="7.79998" height="3.59999" fill="#F55C5C"/>
<rect x="173.4" y="177.601" width="7.19998" height="3.59999" fill="#D95047"/>
<rect x="171" y="177.601" width="7.79998" height="3.59999" fill="#F55C5C"/>
<rect x="174.6" y="181.2" width="7.79998" height="3.59999" fill="#D95047"/>
<rect x="173.4" y="181.2" width="7.19998" height="3.59999" fill="#F55C5C"/>
<line x1="200.4" y1="177" x2="171" y2="177" stroke="#FF6666" stroke-width="5.99998" stroke-linecap="round" stroke-linejoin="round"/>
<rect x="132" y="132" width="35.9999" height="35.9999" fill="#0000FF"/>
<path d="M151.801 146.09H156.146C158.717 146.09 160.801 148.174 160.801 150.745V150.745C160.801 153.316 158.717 155.4 156.146 155.4H144.384C141.521 155.4 139.201 153.08 139.201 150.218V150.218C139.201 147.802 140.87 145.707 143.225 145.167L147.001 144.3" stroke="white" stroke-width="4.2857"/>
<path d="M149.7 140.325V135.6M152.625 141L155.775 137.85M146.775 141L143.625 137.85" stroke="#FFF500" stroke-width="2.57142"/>
<line x1="156" y1="149.657" x2="168" y2="149.657" stroke="white" stroke-width="4.2857"/>
<line x1="132" y1="149.657" x2="144" y2="149.657" stroke="white" stroke-width="4.2857"/>
</svg>
